X:67
M:2/4
L:1/8
Q:1/4=140
K:G
d>Bg>d| c>Aa>c|{c/}BA/B/ {e/}dc/B/|AF D2|\
d>Bg>d|c>Aa>c|{c/}TBA/B/ {e/}dc/B/|GG G2|
"P."(G,B,)B,B,|(A,C)CC|B,D DC/B,/|A,A, A,2|\
(G,B,)B,B,|(A,C)CC|B,D {D/}CB,/A,/|G,G, G,2|
"for."(G,B,)B,B,|(A,C)CC|B,D {E/}DC/B,/|A,A, A,2|\
(G,B,)B,B,|(A,C)CC|B,D {D/}CB,/A,/|G,G, G,2|

